X: 17362
T: High Jinks
R: reel
M: 4/4
K: Dmixolydian
|:ba|ge (3eee BAGA|Bdef g2 ag|fd d^c dAFE|DEFA defd|
Be (3eee BeGB|edef gbag|fdd^c dAFE|DEFD E2:|
|:EF|GFGA BGDC|B,DGA Bdgf|ec (3cdc cBAG|FGAB cAFA|
GFGA BGDC|B,DGA Bdgf|ec (3cdc Aage|fd cA G2:|
|:ef|gafg eB (3BBB|GBef gbag|fgfe dAAG|FGFE D2 af|
gagf eB (3BBB|GBef gbag|fgfe dBAG|FGFD E2:|
K:Dmaj
|:FE|DEFG ADFA|BABd ABde|fefe dBAF|BFAF GFEF|
DEFG ADFA|BABd ABde|fefe fedB|AFEF D2:|

